dist/images/7_ajuda.svg

<svg id="icons" xmlns="http://www.w3.org/2000/svg" viewBox="0 0 10 10"><style>.st0{fill:#f8f9fa}</style><title>Prancheta 2 cópia 2</title><path class="st0" d="M2 8.1h1.5V5.5H2v2.6zm1.3-2.4v2.2H2.2V5.7h1.1zm3.5 0V6l-.1.3v1.1c0 .3-.2.5-.5.5H4.8l-.4-.3h-.8v-.2h.8l.4.3h1.3c.2 0 .3-.1.3-.3v-.1h-.3v-.2h.4v-.3h-.4v-.2h.4v-.2h-.4v-.2h.4l.1-.2c0-.5.1-.4-.5-.4 0 .2-.1.4-.3.4h-.7c-.2 0-.3-.2-.4-.3v-.4h-.1c-.2 0-.4.2-.4.4-.1.4-.3.4-.6.4v-.2c.2 0 .2 0 .3-.2 0-.3.3-.6.6-.6h.2v-.4h.2v.9c0 .1.1.2.2.2h.7c.1 0 .2-.1.2-.2v-.9h.2v.7h.4c.1 0 .2.1.2.3zM5.9 8h.2v.2c0 .3-.2.5-.5.5h-.4c-.3 0-.5-.2-.5-.5V8h.2v.2c0 .1.1.3.3.3h.5c.1 0 .3-.1.3-.3V8zM8 1.3v3.1h-.2V1.5H3.1v2.8h4.5v.2H2.9V1.3H8zM3 7.6h-.2v-.3H3v.3z"/><path class="st0" d="M5.3 3.3c0-.2 0-.4.2-.5.1-.1.2-.2.2-.3 0-.1-.1-.2-.2-.2s-.2 0-.2.1l-.2-.2c.1-.1.2-.1.3-.1.2 0 .4.1.4.3v.1c0 .2-.1.3-.2.4 0 .1-.1.2-.1.4v.1l-.2-.1zm0 .4c0-.1.1-.1.1-.2.1 0 .2.1.2.2s-.1.1-.2.1-.1 0-.1-.1z"/></svg>

<?xml version="1.0" encoding="utf-8"?>
<!-- Generator: Adobe Illustrator 21.1.0, SVG Export Plug-In . SVG Version: 6.00 Build 0)  -->
<svg version="1.1" id="icons" xmlns="http://www.w3.org/2000/svg" xmlns:xlink="http://www.w3.org/1999/xlink" x="0px" y="0px"
	 viewBox="0 0 10 10" style="enable-background:new 0 0 10 10;" xml:space="preserve">
<style type="text/css">
	.st0{fill:#F8F9FA;}
</style>
<title>Prancheta 2 cópia 2</title>
<path class="st0" d="M2,8.1h1.5V5.5H2V8.1z M3.3,5.7v2.2H2.2V5.7H3.3z M6.8,5.7v0.3L6.7,6.3v1.1c0,0.3-0.2,0.5-0.5,0.5H4.8L4.4,7.6
	H3.6V7.4h0.8l0.4,0.3h1.3c0.2,0,0.3-0.1,0.3-0.3V7.3H6.1V7.1h0.4V6.8H6.1V6.6h0.4V6.4H6.1V6.2h0.4L6.6,6c0-0.5,0.1-0.4-0.5-0.4
	C6.1,5.8,6,6,5.8,6c0,0,0,0,0,0H5.1C4.9,6,4.8,5.8,4.7,5.7l0,0V5.3H4.6c-0.2,0-0.4,0.2-0.4,0.4C4.1,6.1,3.9,6.1,3.6,6.1V5.9
	c0.2,0,0.2,0,0.3-0.2c0-0.3,0.3-0.6,0.6-0.6h0.2V4.7h0.2v0.9c0,0.1,0.1,0.2,0.2,0.2l0,0h0.7c0.1,0,0.2-0.1,0.2-0.2l0,0V4.7h0.2v0.7
	h0.4C6.7,5.4,6.8,5.5,6.8,5.7L6.8,5.7z M5.9,8h0.2v0.2c0,0.3-0.2,0.5-0.5,0.5l0,0H5.2c-0.3,0-0.5-0.2-0.5-0.5l0,0V8h0.2v0.2
	c0,0.1,0.1,0.3,0.3,0.3h0h0.5c0.1,0,0.3-0.1,0.3-0.3l0,0V8z M8,1.3v3.1H7.8V1.5H3.1v2.8h4.5v0.2H2.9V1.3H8z M3,7.6H2.8V7.3H3V7.6z"
	/>
<path class="st0" d="M5.3,3.3L5.3,3.3c0-0.2,0-0.4,0.2-0.5c0.1-0.1,0.2-0.2,0.2-0.3c0-0.1-0.1-0.2-0.2-0.2c-0.1,0-0.2,0-0.2,0.1
	L5.1,2.2c0.1-0.1,0.2-0.1,0.3-0.1c0.2,0,0.4,0.1,0.4,0.3c0,0,0,0,0,0.1c0,0.2-0.1,0.3-0.2,0.4C5.6,3,5.5,3.1,5.5,3.3v0.1L5.3,3.3z
	 M5.3,3.7c0-0.1,0.1-0.1,0.1-0.2c0,0,0,0,0,0c0.1,0,0.2,0.1,0.2,0.2S5.5,3.8,5.4,3.8C5.3,3.8,5.3,3.8,5.3,3.7z"/>
</svg>
